usr/share/icons/biglinux-icons-material/scalable/apps/pdfarranger.svg

<svg xmlns="http://www.w3.org/2000/svg" xmlns:xlink="http://www.w3.org/1999/xlink" xml:space="preserve" id="svg154" width="24" height="24" fill="none" version="1.1"><defs id="defs152"><linearGradient id="linearGradient4253"><stop id="stop4249" offset="0" style="stop-color:#b9c1cc;stop-opacity:1"/><stop id="stop4251" offset="1" style="stop-color:#cbd8ed;stop-opacity:1"/></linearGradient><linearGradient id="linearGradient29319"><stop id="stop29317" offset="0" style="stop-color:#d2d8db;stop-opacity:1"/></linearGradient><linearGradient id="fffff"><stop id="stop28389" offset="0" style="stop-color:#fff;stop-opacity:1"/></linearGradient><linearGradient xlink:href="#linearGradient4253" id="linearGradient4255" x1="50.767" x2="49.872" y1="89.886" y2="-7.912" gradientTransform="matrix(.24444 0 0 .24444 -.222 -.222)" gradientUnits="userSpaceOnUse"/><style id="current-color-scheme" type="text/css">.ColorScheme-Text{color:#31363b}.ColorScheme-Background{color:#eff0f1}.ColorScheme-Highlight{color:#3daee9}.ColorScheme-ViewText{color:#31363b}.ColorScheme-ViewBackground{color:#fcfcfc}.ColorScheme-ViewHover{color:#93cee9}.ColorScheme-ViewFocus{color:#3daee9}.ColorScheme-ButtonText{color:#31363b}.ColorScheme-ButtonBackground{color:#eff0f1}.ColorScheme-ButtonHover{color:#93cee9}.ColorScheme-ButtonFocus{color:#3daee9}</style></defs><path id="path6" d="M12 1C2 1 1 6 1 12c0 8 3 11 11 11s11-3 11-11c0-6-1-11-11-11Z" style="font-variation-settings:normal;display:inline;opacity:1;vector-effect:none;fill:url(#linearGradient4255);fill-opacity:1;stroke-width:1.11627;stroke-linecap:butt;stroke-linejoin:miter;stroke-miterlimit:4;stroke-dasharray:none;stroke-dashoffset:0;stroke-opacity:1;-inkscape-stroke:none;stop-color:#000;stop-opacity:1"/><g id="g22469" transform="matrix(.18754 0 0 .18754 -42.105 -31.603)"><g id="g21502" transform="translate(331.822 213.01) scale(5.32245)"><g id="g18871" transform="matrix(1.00002 0 0 1.00002 -16.605 -4.803)"><path id="path18850" fill="#f95" fill-rule="evenodd" d="M14.287 1.852c.293 0 .53.236.53.53v12.17a.53.53 0 0 1-.53.53H8.202V1.851Z" style="paint-order:fill markers stroke"/><path id="path18852" fill="#5f8dd3" fill-rule="evenodd" d="M2.646 1.852a.528.528 0 0 0-.53.53v12.17c0 .293.237.53.53.53H9.26V1.851Z" style="paint-order:fill markers stroke"/><path id="path18854" fill="#37c871" fill-rule="evenodd" d="M13.414 1.592c.298-.028.609.067.609.51v12.73c0 .412-.31.532-.609.51l-5.473-.26.01-13.227Z" style="paint-order:fill markers stroke"/><path id="path18856" fill="#4e76b2" fill-rule="evenodd" d="M12.7 1.323c.259-.029.53.07.53.53V15.08c0 .428-.27.553-.53.53l-4.763-.53V1.85Z" style="paint-order:fill markers stroke"/><path id="path18858" fill="#fff" d="M7.885 4.5c-.08-.013-.158.04-.242.182-.134.227-.195.863-.085 1.475.037.21.117.513.225.845-.086.31-.181.64-.285.967-.412 1.292-1.296 2.646-1.762 3.375-.294.458-1.003.997-1.063.892-.058-.105.141-.34.39-.717.247-.375.881-.764.881-.764s-.27-.01-.964.6c-.693.614-.483.917-.318 1.01.164.096.624.46 2.188-2.256.572-.993.903-1.895 1.096-2.643.198.512.453 1.029.736 1.355.165.19.382.373.623.541-.19.035-.408.077-.703.13-1.08.197-1.618.622-1.63.631.008-.002 1.265-.4 2.6-.585.525.32 1.128.566 1.627.665.779.158.99-.128 1.016-.166-.03.025-.132.072-.453.045-.258-.021-.965-.221-1.68-.605 1.481-.137 1.993.014 2.125.12.132.105.132.223.132.223s.17-.164.058-.33c-.094-.173-.239-.316-1.427-.28-.59.017-.906.038-1.21.078a4.126 4.126 0 0 1-.98-.814c-.366-.434-.59-.933-.736-1.424.219-1.054.15-1.707.15-1.713 0 0-.111.505-.282 1.17-.099-.503-.132-.967-.16-1.297-.06-.756.278-.546.326-.45.077.062.115.27.115.27s-.027-.31-.162-.442a.285.285 0 0 0-.146-.088Zm-.913 5.624h-.004v.003z"/></g></g></g></svg>

<?xml version="1.0" encoding="UTF-8" standalone="no"?>
<svg
   width="24"
   height="24"
   viewBox="0 0 24 24"
   fill="none"
   version="1.1"
   id="svg154"
   sodipodi:docname="app.svg"
   inkscape:version="1.2.2 (b0a8486541, 2022-12-01)"
   xml:space="preserve"
   inkscape:export-filename="../../../../svg/panini.svg"
   inkscape:export-xdpi="96"
   inkscape:export-ydpi="96"
   xmlns:inkscape="http://www.inkscape.org/namespaces/inkscape"
   xmlns:sodipodi="http://sodipodi.sourceforge.net/DTD/sodipodi-0.dtd"
   xmlns:xlink="http://www.w3.org/1999/xlink"
   xmlns="http://www.w3.org/2000/svg"
   xmlns:svg="http://www.w3.org/2000/svg"
   xmlns:sketch="http://www.bohemiancoding.com/sketch/ns"><sodipodi:namedview
     id="namedview156"
     pagecolor="#ffffff"
     bordercolor="#000000"
     borderopacity="1"
     inkscape:showpageshadow="0"
     inkscape:pageopacity="1"
     inkscape:pagecheckerboard="false"
     inkscape:deskcolor="#ffffff"
     showgrid="true"
     inkscape:zoom="32"
     inkscape:cx="9.609375"
     inkscape:cy="15.453125"
     inkscape:window-width="1920"
     inkscape:window-height="1052"
     inkscape:window-x="0"
     inkscape:window-y="0"
     inkscape:window-maximized="1"
     inkscape:current-layer="svg154"
     showguides="true"
     guidecolor="#ff0000"
     guideopacity="1"
     inkscape:lockguides="true"
     showborder="true"
     borderlayer="true"><inkscape:grid
       type="xygrid"
       id="grid356"
       color="#000000"
       opacity="0.10196078"
       empcolor="#000000"
       empopacity="0.10196078"
       snapvisiblegridlinesonly="true"
       enabled="true"
       visible="true"
       dotted="false" /><sodipodi:guide
       position="4,12"
       orientation="-1,0"
       id="guide764"
       inkscape:locked="true"
       inkscape:label="left-circle"
       inkscape:color="rgb(255,0,0)" /><sodipodi:guide
       position="5,12"
       orientation="-1,0"
       id="guide2218"
       inkscape:locked="true"
       inkscape:label="left-square"
       inkscape:color="rgb(255,0,0)" /><sodipodi:guide
       position="12,20"
       orientation="0,1"
       id="guide2220"
       inkscape:locked="true"
       inkscape:label="top-circle"
       inkscape:color="rgb(255,0,0)" /><sodipodi:guide
       position="12,5"
       orientation="0,1"
       id="guide2222"
       inkscape:locked="true"
       inkscape:label="bottom-square"
       inkscape:color="rgb(255,0,0)" /><sodipodi:guide
       position="12,4"
       orientation="0,1"
       id="guide2224"
       inkscape:locked="true"
       inkscape:label="bottom-circle"
       inkscape:color="rgb(255,0,0)" /><sodipodi:guide
       position="19,12"
       orientation="-1,0"
       id="guide2226"
       inkscape:locked="true"
       inkscape:label="right-square"
       inkscape:color="rgb(255,0,0)" /><sodipodi:guide
       position="20,12"
       orientation="-1,0"
       id="guide2228"
       inkscape:locked="true"
       inkscape:label="right-circle"
       inkscape:color="rgb(255,0,0)" /><sodipodi:guide
       position="12,19"
       orientation="0,1"
       id="guide2230"
       inkscape:locked="true"
       inkscape:label="top-square"
       inkscape:color="rgb(255,0,0)" /><sodipodi:guide
       position="12,12"
       orientation="1,0"
       id="guide765"
       inkscape:locked="true" /><sodipodi:guide
       position="12,12"
       orientation="0,-1"
       id="guide767"
       inkscape:locked="true" /><sodipodi:guide
       position="12,12"
       orientation="0.70710678,0.70710678"
       id="guide2266"
       inkscape:locked="true"
       inkscape:label=""
       inkscape:color="rgb(255,0,0)" /><sodipodi:guide
       position="12,12"
       orientation="-0.70710678,0.70710678"
       id="guide2994"
       inkscape:locked="true"
       inkscape:label=""
       inkscape:color="rgb(255,0,0)" /><sodipodi:guide
       position="3,12"
       orientation="-1,0"
       id="guide131543"
       inkscape:locked="true"
       inkscape:label="left-horizontal"
       inkscape:color="rgb(255,0,0)" /><sodipodi:guide
       position="12,21"
       orientation="0,1"
       id="guide131545"
       inkscape:locked="true"
       inkscape:label="top-vertical"
       inkscape:color="rgb(255,0,0)" /><sodipodi:guide
       position="21,12"
       orientation="-1,0"
       id="guide131547"
       inkscape:locked="true"
       inkscape:label="right-horizontal"
       inkscape:color="rgb(255,0,0)" /><sodipodi:guide
       position="12,3"
       orientation="0,1"
       id="guide131549"
       inkscape:locked="true"
       inkscape:label="bottom-vertical"
       inkscape:color="rgb(255,0,0)" /></sodipodi:namedview><defs
     id="defs152"><linearGradient
       inkscape:collect="always"
       id="linearGradient4253"><stop
         style="stop-color:#b9c1cc;stop-opacity:1"
         offset="0"
         id="stop4249" /><stop
         style="stop-color:#cbd8ed;stop-opacity:1"
         offset="1"
         id="stop4251" /></linearGradient><linearGradient
       id="linearGradient29319"
       inkscape:swatch="solid"><stop
         style="stop-color:#d2d8db;stop-opacity:1;"
         offset="0"
         id="stop29317" /></linearGradient><linearGradient
       id="fffff"
       inkscape:swatch="solid"><stop
         style="stop-color:#ffffff;stop-opacity:1;"
         offset="0"
         id="stop28389" /></linearGradient><linearGradient
       inkscape:collect="always"
       xlink:href="#linearGradient4253"
       id="linearGradient4255"
       x1="50.767048"
       y1="89.886368"
       x2="49.872162"
       y2="-7.911932"
       gradientUnits="userSpaceOnUse"
       gradientTransform="matrix(0.24444444,0,0,0.24444444,-0.22222222,-0.22222222)" /><style
       type="text/css"
       id="current-color-scheme">
      .ColorScheme-Text {
        color:#31363b;
      }
      .ColorScheme-Background {
        color:#eff0f1;
      }
      .ColorScheme-Highlight {
        color:#3daee9;
      }
      .ColorScheme-ViewText {
        color:#31363b;
      }
      .ColorScheme-ViewBackground {
        color:#fcfcfc;
      }
      .ColorScheme-ViewHover {
        color:#93cee9;
      }
      .ColorScheme-ViewFocus{
        color:#3daee9;
      }
      .ColorScheme-ButtonText {
        color:#31363b;
      }
      .ColorScheme-ButtonBackground {
        color:#eff0f1;
      }
      .ColorScheme-ButtonHover {
        color:#93cee9;
      }
      .ColorScheme-ButtonFocus{
        color:#3daee9;
      }
      </style><style
       type="text/css"
       id="current-color-scheme-9">
      .ColorScheme-Text {
        color:#31363b;
      }
      .ColorScheme-Background {
        color:#eff0f1;
      }
      .ColorScheme-Highlight {
        color:#3daee9;
      }
      .ColorScheme-ViewText {
        color:#31363b;
      }
      .ColorScheme-ViewBackground {
        color:#fcfcfc;
      }
      .ColorScheme-ViewHover {
        color:#93cee9;
      }
      .ColorScheme-ViewFocus{
        color:#3daee9;
      }
      .ColorScheme-ButtonText {
        color:#31363b;
      }
      .ColorScheme-ButtonBackground {
        color:#eff0f1;
      }
      .ColorScheme-ButtonHover {
        color:#93cee9;
      }
      .ColorScheme-ButtonFocus{
        color:#3daee9;
      }
      </style><style
       type="text/css"
       id="current-color-scheme-2">
      .ColorScheme-Text {
        color:#31363b;
      }
      .ColorScheme-Background {
        color:#eff0f1;
      }
      .ColorScheme-Highlight {
        color:#3daee9;
      }
      .ColorScheme-ViewText {
        color:#31363b;
      }
      .ColorScheme-ViewBackground {
        color:#fcfcfc;
      }
      .ColorScheme-ViewHover {
        color:#93cee9;
      }
      .ColorScheme-ViewFocus{
        color:#3daee9;
      }
      .ColorScheme-ButtonText {
        color:#31363b;
      }
      .ColorScheme-ButtonBackground {
        color:#eff0f1;
      }
      .ColorScheme-ButtonHover {
        color:#93cee9;
      }
      .ColorScheme-ButtonFocus{
        color:#3daee9;
      }
      </style><style
       type="text/css"
       id="current-color-scheme-3">
      .ColorScheme-Text {
        color:#31363b;
      }
      .ColorScheme-Background {
        color:#eff0f1;
      }
      .ColorScheme-Highlight {
        color:#3daee9;
      }
      .ColorScheme-ViewText {
        color:#31363b;
      }
      .ColorScheme-ViewBackground {
        color:#fcfcfc;
      }
      .ColorScheme-ViewHover {
        color:#93cee9;
      }
      .ColorScheme-ViewFocus{
        color:#3daee9;
      }
      .ColorScheme-ButtonText {
        color:#31363b;
      }
      .ColorScheme-ButtonBackground {
        color:#eff0f1;
      }
      .ColorScheme-ButtonHover {
        color:#93cee9;
      }
      .ColorScheme-ButtonFocus{
        color:#3daee9;
      }
      </style><style
       type="text/css"
       id="current-color-scheme-97">
      .ColorScheme-Text {
        color:#31363b;
      }
      .ColorScheme-Background {
        color:#eff0f1;
      }
      .ColorScheme-Highlight {
        color:#3daee9;
      }
      .ColorScheme-ViewText {
        color:#31363b;
      }
      .ColorScheme-ViewBackground {
        color:#fcfcfc;
      }
      .ColorScheme-ViewHover {
        color:#93cee9;
      }
      .ColorScheme-ViewFocus{
        color:#3daee9;
      }
      .ColorScheme-ButtonText {
        color:#31363b;
      }
      .ColorScheme-ButtonBackground {
        color:#eff0f1;
      }
      .ColorScheme-ButtonHover {
        color:#93cee9;
      }
      .ColorScheme-ButtonFocus{
        color:#3daee9;
      }
      </style><style
       type="text/css"
       id="current-color-scheme-7">
      .ColorScheme-Text {
        color:#31363b;
      }
      .ColorScheme-Background {
        color:#eff0f1;
      }
      .ColorScheme-Highlight {
        color:#3daee9;
      }
      .ColorScheme-ViewText {
        color:#31363b;
      }
      .ColorScheme-ViewBackground {
        color:#fcfcfc;
      }
      .ColorScheme-ViewHover {
        color:#93cee9;
      }
      .ColorScheme-ViewFocus{
        color:#3daee9;
      }
      .ColorScheme-ButtonText {
        color:#31363b;
      }
      .ColorScheme-ButtonBackground {
        color:#eff0f1;
      }
      .ColorScheme-ButtonHover {
        color:#93cee9;
      }
      .ColorScheme-ButtonFocus{
        color:#3daee9;
      }
      </style><style
       type="text/css"
       id="current-color-scheme-9-0">
      .ColorScheme-Text {
        color:#31363b;
      }
      .ColorScheme-Background {
        color:#eff0f1;
      }
      .ColorScheme-Highlight {
        color:#3daee9;
      }
      .ColorScheme-ViewText {
        color:#31363b;
      }
      .ColorScheme-ViewBackground {
        color:#fcfcfc;
      }
      .ColorScheme-ViewHover {
        color:#93cee9;
      }
      .ColorScheme-ViewFocus{
        color:#3daee9;
      }
      .ColorScheme-ButtonText {
        color:#31363b;
      }
      .ColorScheme-ButtonBackground {
        color:#eff0f1;
      }
      .ColorScheme-ButtonHover {
        color:#93cee9;
      }
      .ColorScheme-ButtonFocus{
        color:#3daee9;
      }
      </style><style
       type="text/css"
       id="current-color-scheme-2-9">
      .ColorScheme-Text {
        color:#31363b;
      }
      .ColorScheme-Background {
        color:#eff0f1;
      }
      .ColorScheme-Highlight {
        color:#3daee9;
      }
      .ColorScheme-ViewText {
        color:#31363b;
      }
      .ColorScheme-ViewBackground {
        color:#fcfcfc;
      }
      .ColorScheme-ViewHover {
        color:#93cee9;
      }
      .ColorScheme-ViewFocus{
        color:#3daee9;
      }
      .ColorScheme-ButtonText {
        color:#31363b;
      }
      .ColorScheme-ButtonBackground {
        color:#eff0f1;
      }
      .ColorScheme-ButtonHover {
        color:#93cee9;
      }
      .ColorScheme-ButtonFocus{
        color:#3daee9;
      }
      </style><style
       type="text/css"
       id="current-color-scheme-3-3">
      .ColorScheme-Text {
        color:#31363b;
      }
      .ColorScheme-Background {
        color:#eff0f1;
      }
      .ColorScheme-Highlight {
        color:#3daee9;
      }
      .ColorScheme-ViewText {
        color:#31363b;
      }
      .ColorScheme-ViewBackground {
        color:#fcfcfc;
      }
      .ColorScheme-ViewHover {
        color:#93cee9;
      }
      .ColorScheme-ViewFocus{
        color:#3daee9;
      }
      .ColorScheme-ButtonText {
        color:#31363b;
      }
      .ColorScheme-ButtonBackground {
        color:#eff0f1;
      }
      .ColorScheme-ButtonHover {
        color:#93cee9;
      }
      .ColorScheme-ButtonFocus{
        color:#3daee9;
      }
      </style><style
       type="text/css"
       id="current-color-scheme-97-6">
      .ColorScheme-Text {
        color:#31363b;
      }
      .ColorScheme-Background {
        color:#eff0f1;
      }
      .ColorScheme-Highlight {
        color:#3daee9;
      }
      .ColorScheme-ViewText {
        color:#31363b;
      }
      .ColorScheme-ViewBackground {
        color:#fcfcfc;
      }
      .ColorScheme-ViewHover {
        color:#93cee9;
      }
      .ColorScheme-ViewFocus{
        color:#3daee9;
      }
      .ColorScheme-ButtonText {
        color:#31363b;
      }
      .ColorScheme-ButtonBackground {
        color:#eff0f1;
      }
      .ColorScheme-ButtonHover {
        color:#93cee9;
      }
      .ColorScheme-ButtonFocus{
        color:#3daee9;
      }
      </style><style
       type="text/css"
       id="current-color-scheme-6">
      .ColorScheme-Text {
        color:#31363b;
      }
      .ColorScheme-Background {
        color:#eff0f1;
      }
      .ColorScheme-Highlight {
        color:#3daee9;
      }
      .ColorScheme-ViewText {
        color:#31363b;
      }
      .ColorScheme-ViewBackground {
        color:#fcfcfc;
      }
      .ColorScheme-ViewHover {
        color:#93cee9;
      }
      .ColorScheme-ViewFocus{
        color:#3daee9;
      }
      .ColorScheme-ButtonText {
        color:#31363b;
      }
      .ColorScheme-ButtonBackground {
        color:#eff0f1;
      }
      .ColorScheme-ButtonHover {
        color:#93cee9;
      }
      .ColorScheme-ButtonFocus{
        color:#3daee9;
      }
      </style></defs><path
     d="M 12,0.99999998 C 2,0.99999998 0.99999998,6 0.99999998,12 0.99999998,20 4.0000001,23 12,23 20,23 23,20 23,12 23,6 22,0.99999998 12,0.99999998 Z"
     sketch:type="MSShapeGroup"
     id="path6"
     style="font-variation-settings:normal;display:inline;opacity:1;vector-effect:none;fill:url(#linearGradient4255);fill-opacity:1;stroke-width:1.11627;stroke-linecap:butt;stroke-linejoin:miter;stroke-miterlimit:4;stroke-dasharray:none;stroke-dashoffset:0;stroke-opacity:1;-inkscape-stroke:none;stop-color:#000000;stop-opacity:1"
     sodipodi:nodetypes="sssss"
     inkscape:label="Shape"
     sodipodi:insensitive="true" /><g
     id="g22469"
     transform="matrix(0.18753605,0,0,0.18753605,-42.105144,-31.602718)"><g
       id="g21502"
       transform="matrix(5.3224523,0,0,5.3224523,331.82153,213.01082)"><g
         id="g18871"
         transform="matrix(1.0000197,0,0,1.0000197,-16.605062,-4.8033773)"><path
           d="m 14.287,1.852 c 0.293,0 0.53,0.236 0.53,0.53 v 12.17 c 0,0.293 -0.237,0.53 -0.53,0.53 H 8.202 V 1.851 Z"
           fill="#ff9955"
           fill-rule="evenodd"
           style="paint-order:fill markers stroke"
           id="path18850" /><path
           d="m 2.646,1.852 a 0.528,0.528 0 0 0 -0.53,0.53 v 12.17 c 0,0.293 0.237,0.53 0.53,0.53 H 9.26 V 1.851 Z"
           fill="#5f8dd3"
           fill-rule="evenodd"
           style="paint-order:fill markers stroke"
           id="path18852" /><path
           d="m 13.414,1.592 c 0.298,-0.028 0.609,0.067 0.609,0.51 v 12.73 c 0,0.412 -0.31,0.532 -0.609,0.51 L 7.941,15.082 7.951,1.855 Z"
           fill="#37c871"
           fill-rule="evenodd"
           style="paint-order:fill markers stroke"
           id="path18854" /><path
           d="m 12.7,1.323 c 0.259,-0.029 0.53,0.07 0.53,0.53 V 15.08 c 0,0.428 -0.27,0.553 -0.53,0.53 L 7.937,15.08 V 1.85 Z"
           fill="#4e76b2"
           fill-rule="evenodd"
           style="paint-order:fill markers stroke"
           id="path18856" /><path
           d="M 7.885,4.5 C 7.805,4.487 7.727,4.54 7.643,4.682 7.509,4.909 7.448,5.545 7.558,6.157 7.595,6.367 7.675,6.67 7.783,7.002 7.697,7.312 7.602,7.642 7.498,7.969 7.086,9.261 6.202,10.615 5.736,11.344 c -0.294,0.458 -1.003,0.997 -1.063,0.892 -0.058,-0.105 0.141,-0.34 0.39,-0.717 0.247,-0.375 0.881,-0.764 0.881,-0.764 0,0 -0.27,-0.01 -0.964,0.6 -0.693,0.614 -0.483,0.917 -0.318,1.01 0.164,0.096 0.624,0.46 2.188,-2.256 0.572,-0.993 0.903,-1.895 1.096,-2.643 0.198,0.512 0.453,1.029 0.736,1.355 0.165,0.19 0.382,0.373 0.623,0.541 -0.19,0.035 -0.408,0.077 -0.703,0.13 -1.08,0.197 -1.618,0.622 -1.63,0.631 0.008,-0.002 1.265,-0.4 2.6,-0.585 0.525,0.32 1.128,0.566 1.627,0.665 0.779,0.158 0.99,-0.128 1.016,-0.166 -0.03,0.025 -0.132,0.072 -0.453,0.045 -0.258,-0.021 -0.965,-0.221 -1.68,-0.605 1.481,-0.137 1.993,0.014 2.125,0.12 0.132,0.105 0.132,0.223 0.132,0.223 0,0 0.17,-0.164 0.058,-0.33 C 12.303,9.317 12.158,9.174 10.97,9.21 10.38,9.227 10.064,9.248 9.76,9.288 A 4.126,4.126 0 0 1 8.78,8.474 C 8.414,8.04 8.19,7.541 8.044,7.05 8.263,5.996 8.194,5.343 8.194,5.337 c 0,0 -0.111,0.505 -0.282,1.17 C 7.813,6.004 7.78,5.54 7.752,5.21 7.692,4.454 8.03,4.664 8.078,4.76 c 0.077,0.062 0.115,0.27 0.115,0.27 0,0 -0.027,-0.31 -0.162,-0.442 A 0.285,0.285 0 0 0 7.885,4.5 Z M 6.972,10.124 H 6.968 v 0.003 z"
           fill="#ffffff"
           id="path18858" /></g></g></g></svg>
